images/angular-logo.svg

<svg xmlns="http://www.w3.org/2000/svg" viewBox="0 0 1300 1300" xmlns:v="https://vecta.io/nano"><g fill="none" stroke-width="2"><path stroke="#e5959c" vector-effect="non-scaling-stroke" d="M651.98 156.58L184.6 323.08a1.15 1.03 78 0 0-.68 1.18l71.36 618.97a1.64 1.61 11.5 0 0 .84 1.25q197.42 109.35 396.37 219.49.67.37 1.72-.15"/><path stroke="#d9929a" vector-effect="non-scaling-stroke" d="M654.21 1163.82l395.13-218.81q1.62-.9 1.84-2.74l71.19-617.71q.14-1.22-1.01-1.63-233.43-83.23-467.61-166.66-.68-.25-1.77.31"/><path stroke="#bf2837" vector-effect="non-scaling-stroke" d="M654.21 1163.82q-1-.91-1-3.32-.16-183.38-.04-378.29a3.46 2.34 20.4 0 0-1.77-2.47q-.51-.3-.5-.78 0-.72.71-.79l1.35-.12"/><path stroke="#d9929a" vector-effect="non-scaling-stroke" d="M652.96 778.05l123.24.12a1.34 1.33 78.8 0 1 1.23.83l58.38 145.67a1.13 1.13 0 0 0 1.05.72h108.07a.37.36-11.9 0 0 .34-.51l-291.9-657.15"/><path stroke="#bf2837" vector-effect="non-scaling-stroke" d="M653.37 267.73l-.01-108.62q0-.53-.39-.9-.8-.77-.99-1.63"/><path vector-effect="non-scaling-stroke" d="M653.37 267.73q-.48-.1-.87.78-145.77 326.85-292.35 655.57-.56 1.26.82 1.26h107.34a1.21 1.19 10.7 0 0 1.12-.75l58.53-146.04q.21-.51.76-.51l124.24.01m-1.84-291.81l-83.31 200.3q-.34.82.54.82H653q.24 0 .45-.11.32-.16.26.07" stroke="#e5959c"/><path stroke="#d9929a" vector-effect="non-scaling-stroke" d="M653.71 687.32l84.48-.04a.37.37 0 0 0 .34-.52q-42.59-102.43-84.91-204.13-.15-.37-.54-.48a.58.57-72.4 0 0-.7.37l-1.26 3.72"/><path stroke="#bf2837" vector-effect="non-scaling-stroke" d="M653.71 687.32q-.04-.21-.12-.28-.11-.09-.12-.23-.32-4.9-.32-18.56.04-92.23 0-173.44 0-2 .19-4.05.17-1.95.04-4.07-.04-.66-.63-.36-1.63.83-1.63-.09"/></g><path fill="#fff" d="M0 0h1300v1300H0V0zm651.98 156.58L184.6 323.08a1.15 1.03 78 0 0-.68 1.18l71.36 618.97a1.64 1.61 11.5 0 0 .84 1.25q197.42 109.35 396.37 219.49.67.37 1.72-.15l395.13-218.81q1.62-.9 1.84-2.74l71.19-617.71q.14-1.22-1.01-1.63-233.43-83.23-467.61-166.66-.68-.25-1.77.31z"/><path fill="#b32535" d="M654.21 1163.82q-1-.91-1-3.32-.16-183.38-.04-378.29a3.46 2.34 20.4 0 0-1.77-2.47q-.51-.3-.5-.78 0-.72.71-.79l1.35-.12 123.24.12a1.34 1.33 78.8 0 1 1.23.83l58.38 145.67a1.13 1.13 0 0 0 1.05.72h108.07a.37.36-11.9 0 0 .34-.51l-291.9-657.15-.01-108.62q0-.53-.39-.9-.8-.77-.99-1.63 1.09-.56 1.77-.31 234.18 83.43 467.61 166.66 1.15.41 1.01 1.63l-71.19 617.71q-.22 1.84-1.84 2.74l-395.13 218.81z"/><path fill="#cb2a39" d="M651.98 156.58q.19.86.99 1.63.39.37.39.9l.01 108.62q-.48-.1-.87.78-145.77 326.85-292.35 655.57-.56 1.26.82 1.26h107.34a1.21 1.19 10.7 0 0 1.12-.75l58.53-146.04q.21-.51.76-.51l124.24.01-1.35.12q-.71.07-.71.79-.01.48.5.78a3.46 2.34 20.4 0 1 1.77 2.47q-.12 194.91.04 378.29 0 2.41 1 3.32-1.05.52-1.72.15-198.95-110.14-396.37-219.49a1.64 1.61 11.5 0 1-.84-1.25l-71.36-618.97a1.15 1.03 78 0 1 .68-1.18l467.38-166.5z"/><path fill="#fff" d="M653.37 267.73l291.9 657.15a.37.36-11.9 0 1-.34.51H836.86a1.13 1.13 0 0 1-1.05-.72L777.43 779a1.34 1.33 78.8 0 0-1.23-.83l-123.24-.12-124.24-.01q-.55 0-.76.51l-58.53 146.04a1.21 1.19 10.7 0 1-1.12.75H360.97q-1.38 0-.82-1.26Q506.73 595.36 652.5 268.51q.39-.88.87-.78zm-2.25 218.51l-83.31 200.3q-.34.82.54.82H653q.24 0 .45-.11.32-.16.26.07l84.48-.04a.37.37 0 0 0 .34-.52q-42.59-102.43-84.91-204.13-.15-.37-.54-.48a.58.57-72.4 0 0-.7.37l-1.26 3.72z"/><path fill="#b32535" d="M653.71 687.32q-.04-.21-.12-.28-.11-.09-.12-.23-.32-4.9-.32-18.56.04-92.23 0-173.44 0-2 .19-4.05.17-1.95.04-4.07-.04-.66-.63-.36-1.63.83-1.63-.09l1.26-3.72a.58.57-72.4 0 1 .7-.37q.39.11.54.48 42.32 101.7 84.91 204.13a.37.37 0 0 1-.34.52l-84.48.04z"/><path fill="#cb2a39" d="M653.71 687.32q.06-.23-.26-.07-.21.11-.45.11h-84.65q-.88 0-.54-.82l83.31-200.3q0 .92 1.63.09.59-.3.63.36.13 2.12-.04 4.07-.19 2.05-.19 4.05.04 81.21 0 173.44 0 13.66.32 18.56.01.14.12.23.08.07.12.28z"/></svg>

<?xml version="1.0" encoding="UTF-8" standalone="no"?>
<!DOCTYPE svg PUBLIC "-//W3C//DTD SVG 1.1//EN" "http://www.w3.org/Graphics/SVG/1.1/DTD/svg11.dtd">
<svg xmlns="http://www.w3.org/2000/svg" version="1.1" viewBox="0.00 0.00 1300.00 1300.00">
<g stroke-width="2.00" fill="none" stroke-linecap="butt">
<path stroke="#e5959c" vector-effect="non-scaling-stroke" d="
  M 651.98 156.58
  L 184.60 323.08
  A 1.15 1.03 78.0 0 0 183.92 324.26
  L 255.28 943.23
  A 1.64 1.61 11.5 0 0 256.12 944.48
  Q 453.54 1053.83 652.49 1163.97
  Q 653.16 1164.34 654.21 1163.82"
/>
<path stroke="#d9929a" vector-effect="non-scaling-stroke" d="
  M 654.21 1163.82
  L 1049.34 945.01
  Q 1050.96 944.11 1051.18 942.27
  L 1122.37 324.56
  Q 1122.51 323.34 1121.36 322.93
  Q 887.93 239.70 653.75 156.27
  Q 653.07 156.02 651.98 156.58"
/>
<path stroke="#bf2837" vector-effect="non-scaling-stroke" d="
  M 654.21 1163.82
  Q 653.21 1162.91 653.21 1160.50
  Q 653.05 977.12 653.17 782.21
  A 3.46 2.34 20.4 0 0 651.40 779.74
  Q 650.89 779.44 650.90 778.96
  Q 650.90 778.24 651.61 778.17
  L 652.96 778.05"
/>
<path stroke="#d9929a" vector-effect="non-scaling-stroke" d="
  M 652.96 778.05
  L 776.20 778.17
  A 1.34 1.33 78.8 0 1 777.43 779.00
  L 835.81 924.67
  A 1.13 1.13 0.0 0 0 836.86 925.39
  L 944.93 925.39
  A 0.37 0.36 -11.9 0 0 945.27 924.88
  L 653.37 267.73"
/>
<path stroke="#bf2837" vector-effect="non-scaling-stroke" d="
  M 653.37 267.73
  L 653.36 159.11
  Q 653.36 158.58 652.97 158.21
  Q 652.17 157.44 651.98 156.58"
/>
<path stroke="#e5959c" vector-effect="non-scaling-stroke" d="
  M 653.37 267.73
  Q 652.89 267.63 652.50 268.51
  Q 506.73 595.36 360.15 924.08
  Q 359.59 925.34 360.97 925.34
  L 468.31 925.34
  A 1.21 1.19 10.7 0 0 469.43 924.59
  L 527.96 778.55
  Q 528.17 778.04 528.72 778.04
  L 652.96 778.05"
/>
<path stroke="#e5959c" vector-effect="non-scaling-stroke" d="
  M 651.12 486.24
  L 567.81 686.54
  Q 567.47 687.36 568.35 687.36
  L 653.00 687.36
  Q 653.24 687.36 653.45 687.25
  Q 653.77 687.09 653.71 687.32"
/>
<path stroke="#d9929a" vector-effect="non-scaling-stroke" d="
  M 653.71 687.32
  L 738.19 687.28
  A 0.37 0.37 0.0 0 0 738.53 686.76
  Q 695.94 584.33 653.62 482.63
  Q 653.47 482.26 653.08 482.15
  A 0.58 0.57 -72.4 0 0 652.38 482.52
  L 651.12 486.24"
/>
<path stroke="#bf2837" vector-effect="non-scaling-stroke" d="
  M 653.71 687.32
  Q 653.67 687.11 653.59 687.04
  Q 653.48 686.95 653.47 686.81
  Q 653.15 681.91 653.15 668.25
  Q 653.19 576.02 653.15 494.81
  Q 653.15 492.81 653.34 490.76
  Q 653.51 488.81 653.38 486.69
  Q 653.34 486.03 652.75 486.33
  Q 651.12 487.16 651.12 486.24"
/>
</g>
<path fill="#ffffff" d="
  M 0.00 0.00
  L 1300.00 0.00
  L 1300.00 1300.00
  L 0.00 1300.00
  L 0.00 0.00
  Z
  M 651.98 156.58
  L 184.60 323.08
  A 1.15 1.03 78.0 0 0 183.92 324.26
  L 255.28 943.23
  A 1.64 1.61 11.5 0 0 256.12 944.48
  Q 453.54 1053.83 652.49 1163.97
  Q 653.16 1164.34 654.21 1163.82
  L 1049.34 945.01
  Q 1050.96 944.11 1051.18 942.27
  L 1122.37 324.56
  Q 1122.51 323.34 1121.36 322.93
  Q 887.93 239.70 653.75 156.27
  Q 653.07 156.02 651.98 156.58
  Z"
/>
<path fill="#b32535" d="
  M 654.21 1163.82
  Q 653.21 1162.91 653.21 1160.50
  Q 653.05 977.12 653.17 782.21
  A 3.46 2.34 20.4 0 0 651.40 779.74
  Q 650.89 779.44 650.90 778.96
  Q 650.90 778.24 651.61 778.17
  L 652.96 778.05
  L 776.20 778.17
  A 1.34 1.33 78.8 0 1 777.43 779.00
  L 835.81 924.67
  A 1.13 1.13 0.0 0 0 836.86 925.39
  L 944.93 925.39
  A 0.37 0.36 -11.9 0 0 945.27 924.88
  L 653.37 267.73
  L 653.36 159.11
  Q 653.36 158.58 652.97 158.21
  Q 652.17 157.44 651.98 156.58
  Q 653.07 156.02 653.75 156.27
  Q 887.93 239.70 1121.36 322.93
  Q 1122.51 323.34 1122.37 324.56
  L 1051.18 942.27
  Q 1050.96 944.11 1049.34 945.01
  L 654.21 1163.82
  Z"
/>
<path fill="#cb2a39" d="
  M 651.98 156.58
  Q 652.17 157.44 652.97 158.21
  Q 653.36 158.58 653.36 159.11
  L 653.37 267.73
  Q 652.89 267.63 652.50 268.51
  Q 506.73 595.36 360.15 924.08
  Q 359.59 925.34 360.97 925.34
  L 468.31 925.34
  A 1.21 1.19 10.7 0 0 469.43 924.59
  L 527.96 778.55
  Q 528.17 778.04 528.72 778.04
  L 652.96 778.05
  L 651.61 778.17
  Q 650.90 778.24 650.90 778.96
  Q 650.89 779.44 651.40 779.74
  A 3.46 2.34 20.4 0 1 653.17 782.21
  Q 653.05 977.12 653.21 1160.50
  Q 653.21 1162.91 654.21 1163.82
  Q 653.16 1164.34 652.49 1163.97
  Q 453.54 1053.83 256.12 944.48
  A 1.64 1.61 11.5 0 1 255.28 943.23
  L 183.92 324.26
  A 1.15 1.03 78.0 0 1 184.60 323.08
  L 651.98 156.58
  Z"
/>
<path fill="#ffffff" d="
  M 653.37 267.73
  L 945.27 924.88
  A 0.37 0.36 -11.9 0 1 944.93 925.39
  L 836.86 925.39
  A 1.13 1.13 0.0 0 1 835.81 924.67
  L 777.43 779.00
  A 1.34 1.33 78.8 0 0 776.20 778.17
  L 652.96 778.05
  L 528.72 778.04
  Q 528.17 778.04 527.96 778.55
  L 469.43 924.59
  A 1.21 1.19 10.7 0 1 468.31 925.34
  L 360.97 925.34
  Q 359.59 925.34 360.15 924.08
  Q 506.73 595.36 652.50 268.51
  Q 652.89 267.63 653.37 267.73
  Z
  M 651.12 486.24
  L 567.81 686.54
  Q 567.47 687.36 568.35 687.36
  L 653.00 687.36
  Q 653.24 687.36 653.45 687.25
  Q 653.77 687.09 653.71 687.32
  L 738.19 687.28
  A 0.37 0.37 0.0 0 0 738.53 686.76
  Q 695.94 584.33 653.62 482.63
  Q 653.47 482.26 653.08 482.15
  A 0.58 0.57 -72.4 0 0 652.38 482.52
  L 651.12 486.24
  Z"
/>
<path fill="#b32535" d="
  M 653.71 687.32
  Q 653.67 687.11 653.59 687.04
  Q 653.48 686.95 653.47 686.81
  Q 653.15 681.91 653.15 668.25
  Q 653.19 576.02 653.15 494.81
  Q 653.15 492.81 653.34 490.76
  Q 653.51 488.81 653.38 486.69
  Q 653.34 486.03 652.75 486.33
  Q 651.12 487.16 651.12 486.24
  L 652.38 482.52
  A 0.58 0.57 -72.4 0 1 653.08 482.15
  Q 653.47 482.26 653.62 482.63
  Q 695.94 584.33 738.53 686.76
  A 0.37 0.37 0.0 0 1 738.19 687.28
  L 653.71 687.32
  Z"
/>
<path fill="#cb2a39" d="
  M 653.71 687.32
  Q 653.77 687.09 653.45 687.25
  Q 653.24 687.36 653.00 687.36
  L 568.35 687.36
  Q 567.47 687.36 567.81 686.54
  L 651.12 486.24
  Q 651.12 487.16 652.75 486.33
  Q 653.34 486.03 653.38 486.69
  Q 653.51 488.81 653.34 490.76
  Q 653.15 492.81 653.15 494.81
  Q 653.19 576.02 653.15 668.25
  Q 653.15 681.91 653.47 686.81
  Q 653.48 686.95 653.59 687.04
  Q 653.67 687.11 653.71 687.32
  Z"
/>
</svg>
